X: 1
T: Molly Rankin's
R: reel
M: 4/4
L: 1/8
K: Dmaj
dB|:Ad (3ddd d2df|edef ed B2|Ad (3ddd d2ef|afdf e2dB|
Ad (3ddd d2df|edef ed B2|abaf edef|1 defd e2dB:|2 defd e2ef||
|:aA (3AAA afef|abaf edef|aA (3AAA afef|defd e2ef|
aA (3AAA afef|abaf edef|gefb edBe|defd e2ef:|

